!!!OTL: 42. Skotshne
!!!Genre:	Skotshne
!!!Mode:	Minor
!!!Listening/dance:	listening
!!!:	*B-:
!!!One_Mode:	no
**kern
*thru
*I"P1
*clefG2
*k[b-e-]
*B-:
!LO:TX:a:i:t=Bb-major
=29||
*>D
8fL
16gL
16aJJ
16b-LL
16cc
16dd
16eenJJ
=30
16ffLL
16een
16gg
16ffJJ
4ff
=31
16ee-XLL
(16cc
16ff)
16ee-JJ
4ee-
=32
16ccLL
16a
16ff
16ee-JJ
4dd
=33
8fL
16gL
16aJJ
16b-LL
16cc
16dd
16eenJJ
=34
16ffLL
(16een
16gg)
16ffJJ
4ff
=35
8ffL
16dddL
16bb-JJ
16ffLL
16dd
16a
16b-JJ
=36
(16ccLL
16b-JJ)
8b-
8r
=||
*>E
!!!End-Modulation
*-
